web/public/images/startup-logos/Pullflow_On_Dark.svg

<svg width="1447" height="368" viewBox="0 0 1447 368" fill="none" xmlns="http://www.w3.org/2000/svg">
<g clip-path="url(#clip0_0_19)">
<path d="M408.341 290V88.4H474.869C488.405 88.4 500.309 90.56 510.581 94.88C520.853 99.2 528.821 106.16 534.485 115.76C540.245 125.36 543.125 138.032 543.125 153.776C543.125 169.232 540.245 181.808 534.485 191.504C528.821 201.104 520.853 208.16 510.581 212.672C500.309 217.184 488.405 219.44 474.869 219.44H437.141V290H408.341ZM437.141 194.96H470.837C485.525 194.96 496.517 191.648 503.813 185.024C511.205 178.304 514.901 167.984 514.901 154.064C514.901 140.048 511.397 129.68 504.389 122.96C497.477 116.24 486.293 112.88 470.837 112.88H437.141V194.96ZM614.466 292.88C603.426 292.88 594.018 290.672 586.242 286.256C578.466 281.744 572.514 274.928 568.386 265.808C564.354 256.688 562.338 245.072 562.338 230.96V148.88H588.258V223.76C588.258 238.736 590.802 250.16 595.89 258.032C601.074 265.904 609.474 269.84 621.09 269.84C629.058 269.84 636.45 267.92 643.266 264.08C650.082 260.24 654.786 254.096 657.378 245.648L653.634 259.76V148.88H679.554V290H656.514L651.33 262.352L658.242 266.96C653.538 275.696 647.778 282.224 640.962 286.544C634.242 290.768 625.41 292.88 614.466 292.88ZM748.882 292.88C739.762 292.88 732.514 291.248 727.138 287.984C721.858 284.624 718.066 280.352 715.762 275.168C713.458 269.984 712.306 264.56 712.306 258.896V74H738.226V243.92C738.226 251.984 738.754 258.032 739.81 262.064C740.866 266.096 742.978 268.784 746.146 270.128C749.41 271.472 754.354 272.144 760.978 272.144L757.234 292.88H748.882ZM814.729 292.88C805.609 292.88 798.361 291.248 792.985 287.984C787.705 284.624 783.913 280.352 781.609 275.168C779.305 269.984 778.153 264.56 778.153 258.896V74H804.073V243.92C804.073 251.984 804.601 258.032 805.657 262.064C806.713 266.096 808.825 268.784 811.993 270.128C815.257 271.472 820.201 272.144 826.825 272.144L823.081 292.88H814.729ZM854.08 290V169.04H829.6L833.056 148.88H854.08V115.472C854.08 102.896 857.44 92.864 864.16 85.376C870.88 77.792 880.768 74 893.824 74C898.624 74 902.8 74.336 906.352 75.008C910 75.68 913.312 76.592 916.288 77.744L912.256 99.632C909.952 98.768 907.696 98.144 905.488 97.76C903.28 97.28 900.736 97.04 897.856 97.04C892.288 97.04 887.92 98.624 884.752 101.792C881.584 104.864 880 110 880 117.2V148.88H918.016V169.04H880V290H854.08ZM973.705 292.88C964.585 292.88 957.337 291.248 951.961 287.984C946.681 284.624 942.889 280.352 940.585 275.168C938.281 269.984 937.129 264.56 937.129 258.896V74H963.049V243.92C963.049 251.984 963.577 258.032 964.633 262.064C965.689 266.096 967.801 268.784 970.969 270.128C974.233 271.472 979.177 272.144 985.801 272.144L982.057 292.88H973.705ZM1063.49 292.88C1048.71 292.88 1036.08 289.616 1025.62 283.088C1015.25 276.464 1007.28 267.632 1001.71 256.592C996.242 245.456 993.506 233.072 993.506 219.44C993.506 205.808 996.242 193.472 1001.71 182.432C1007.28 171.296 1015.25 162.464 1025.62 155.936C1036.08 149.312 1048.71 146 1063.49 146C1078.18 146 1090.75 149.312 1101.22 155.936C1111.68 162.464 1119.65 171.296 1125.12 182.432C1130.69 193.472 1133.47 205.808 1133.47 219.44C1133.47 233.072 1130.69 245.456 1125.12 256.592C1119.65 267.632 1111.68 276.464 1101.22 283.088C1090.75 289.616 1078.18 292.88 1063.49 292.88ZM1063.49 269.84C1077.51 269.84 1088.26 265.424 1095.75 256.592C1103.23 247.664 1106.98 235.28 1106.98 219.44C1106.98 203.6 1103.23 191.264 1095.75 182.432C1088.26 173.504 1077.51 169.04 1063.49 169.04C1049.57 169.04 1038.82 173.504 1031.23 182.432C1023.75 191.264 1020 203.6 1020 219.44C1020 235.28 1023.75 247.664 1031.23 256.592C1038.82 265.424 1049.57 269.84 1063.49 269.84ZM1184.8 290L1142.47 148.88H1173L1200.07 261.488L1230.02 153.2H1256.8L1287.04 261.488L1314.12 148.88H1344.64L1302.02 290H1272.93L1243.56 185.744L1213.89 290H1184.8Z" fill="#D6BCFA"/>
<path d="M235.134 292.771L350.348 192.43L235.134 92.0896H191.962L307.177 192.43L191.962 292.771H235.134Z" fill="#D6BCFA"/>
<path d="M188.866 292.771L73.6515 192.43L188.866 92.0896H232.038L116.823 192.43L232.038 292.771H188.866Z" fill="#ECDEFF"/>
</g>
<defs>
<clipPath id="clip0_0_19">
<rect width="1274" height="350" fill="white" transform="translate(72 12)"/>
</clipPath>
</defs>
</svg>

<svg fill="none" height="368" width="1447" xmlns="http://www.w3.org/2000/svg"><clipPath id="a"><path d="M72 12h1274v350H72z"/></clipPath><g clip-path="url(#a)"><path d="M408.3 290V88.4H475c13.5 0 25.4 2.2 35.7 6.5s18.2 11.3 23.9 20.9a73.3 73.3 0 0 1 8.6 38c0 15.4-2.9 28-8.6 37.7-5.7 9.6-13.6 16.7-24 21.2s-22 6.7-35.6 6.7h-38V290zm28.8-95h33.7c14.7 0 25.7-3.4 33-10 7.4-6.7 11.1-17 11.1-31s-3.5-24.3-10.5-31c-7-6.8-18.1-10.1-33.6-10.1h-33.7zm177.4 97.9a57 57 0 0 1-28.3-6.6 43.6 43.6 0 0 1-17.8-20.5 87 87 0 0 1-6-34.8v-82.1h25.9v74.9c0 15 2.5 26.4 7.6 34.2 5.2 7.9 13.6 11.8 25.2 11.8 8 0 15.3-1.9 22.2-5.7s11.5-10 14-18.5l-3.7 14.2v-111h26V290h-23l-5.3-27.6 7 4.6a51.2 51.2 0 0 1-17.3 19.5 49.2 49.2 0 0 1-26.5 6.4zm134.4 0c-9.1 0-16.4-1.7-21.8-5-5.2-3.3-9-7.5-11.3-12.7s-3.5-10.6-3.5-16.3V74h26v170c0 8 .5 14 1.5 18s3.2 6.8 6.3 8.1c3.3 1.4 8.3 2 14.9 2l-3.8 20.8zm65.8 0c-9 0-16.3-1.7-21.7-5-5.3-3.3-9-7.5-11.4-12.7s-3.4-10.6-3.4-16.3V74H804v170c0 8 .5 14 1.6 18s3.1 6.8 6.3 8.1a40 40 0 0 0 14.8 2l-3.7 20.8zm39.4-2.9V169h-24.5l3.5-20.1h21v-33.4c0-12.6 3.3-22.6 10-30.1C871 77.8 880.9 74 893.9 74a68.2 68.2 0 0 1 22.5 3.7l-4 22A37.7 37.7 0 0 0 898 97c-5.6 0-10 1.6-13.1 4.8-3.2 3-4.8 8.2-4.8 15.4v31.7h38V169h-38v121zm119.6 2.9a41 41 0 0 1-21.7-5c-5.3-3.3-9.1-7.5-11.4-12.7s-3.5-10.6-3.5-16.3V74h26v170c0 8 .5 14 1.5 18s3.2 6.8 6.4 8.1c3.2 1.4 8.2 2 14.8 2l-3.7 20.8zm89.8 0a70.1 70.1 0 0 1-37.9-9.8 66.3 66.3 0 0 1-23.9-26.5c-5.5-11.1-8.2-23.5-8.2-37.2s2.7-26 8.2-37a65 65 0 0 1 61.8-36.4c14.7 0 27.3 3.3 37.7 10a63.8 63.8 0 0 1 24 26.4c5.5 11 8.3 23.4 8.3 37s-2.8 26-8.4 37.2a65 65 0 0 1-23.9 26.5 69.9 69.9 0 0 1-37.7 9.8zm0-23c14 0 24.8-4.5 32.3-13.3 7.4-9 11.2-21.3 11.2-37.2s-3.8-28.1-11.2-37a40 40 0 0 0-32.3-13.4 40 40 0 0 0-32.3 13.4c-7.5 8.9-11.2 21.2-11.2 37s3.8 28.3 11.2 37.2a40.2 40.2 0 0 0 32.3 13.2zm121.3 20.1-42.3-141.1h30.5l27 112.6 30-108.3h26.8l30.2 108.3 27.1-112.6h30.5L1302 290h-29l-29.4-104.3-29.7 104.3zm-949.7 2.8 115.2-100.4L235.1 92.1H192l115.2 100.3L192 292.8z" fill="#d6bcfa"/><path d="M188.9 292.8 73.7 192.4 188.9 92.1H232L116.8 192.4 232 292.8z" fill="#ecdeff"/></g></svg>
